X:21
T:The Almo Rant
C:Colin Hume, 2019
L:1/4
M:2/2
R:Reel
S:Colin Hume's website,  colinhume.com  - chords can also be printed below the stave.
Q:1/2=112
%%MIDI ratio 3 1
K:D
%%center Play 4 times straight through - no repeats
P:A
A | "D"d/c/d/e/ fd | "G"Bd "D"A>d | "G"Bd Gd | "A"ce Ac |\
"D"d/c/d/e/ fd | "G"Bd "D"Ad/e/ | "Bm"fd "A7"ec | "D"d2 dc/d/ |
P:B
"A"ec Ae | "D"fd Ae/f/ | "Em"gf ed | "A"cB AB/c/ |\
"G"dB GB | "D"AF DC/D/ | "Em"ED CB, | "A"A,2 A,c/d/ |
P:C
"A"ec Ae | "D"fd Ae/f/ | "Em"gf ed | "A"cB Ad/c/ |\
"G"Bg "D/F#"Af | "Em"Ge "D"Fd | "A"c/B/c/d/ "A7"ec | "D"d2 d |]

